X:14161
T:Reel of Rio, The
C:Sean Ryan
R:reel
D:Fintan Vallely
Z:id:hn-reel-305
M:C|
K:G
DEGA ~B3d|eg~g2 agef|gede gedB|c2BA GE~E2|
DEGA ~B3d|eg~g2 agef|gede gedB|1 cABA G2GE:|2 cABA GABc||
dg~g2 ag~g2|bgag edBd|eBBA GABd|gedB ABGE|
DEGA ~B3d|eg~g2 agef|gede gedB|1 cABA GABc:|2 cABA G2GE||
